X:4065
T:Old Pipe Reel
T:Traditional Reel
T:Donald McLeod's Reel
M:4/4
N:Thanks to Jack Campin for error-corrections
O:Scotland
R:Reel
Z:Richard Robinson 
%%TUNEURL: http://www.leeds.ac.uk/music/Info/RRTuneBk/gettune/0000082d.html
%%ID:0000082d
K:A dorian
e|A2A2 GAAB|e2de gede|a2ea gede|A2A2 BGGB|
A2A2 GAAB|e2de gede|a2ea gedB|A2A2 GAA:|
e|a2ea gede|a3 e geef|g2ea edBe|A2A2 BGGB|
A2A2 GAAB|e2de gede|a2ea gedB|A2A2 GAA:|
